icon/fc/film.svg

<svg version="1" xmlns="http://www.w3.org/2000/svg" viewBox="0 0 48 48"><path fill="#3F51B5" d="M45 9H3v30h42V9zM22 37v-4h4v4h-4zm8 0v-4h4v4h-4zm8 0v-4h4v4h-4zm-24 0v-4h4v4h-4zm-8 0v-4h4v4H6zm16-22v-4h4v4h-4zm8 0v-4h4v4h-4zm8 0v-4h4v4h-4zm-24 0v-4h4v4h-4zm-8 0v-4h4v4H6z"/></svg>

<svg version="1" xmlns="http://www.w3.org/2000/svg" viewBox="0 0 48 48" enable-background="new 0 0 48 48" height="1em" width="1em">
  <path fill="#3F51B5" d="M45,9H3v30h42V9z M22,37v-4h4v4H22z M30,37v-4h4v4H30z M38,37v-4h4v4H38z M14,37v-4h4v4H14z M6,37v-4h4v4H6 z M22,15v-4h4v4H22z M30,15v-4h4v4H30z M38,15v-4h4v4H38z M14,15v-4h4v4H14z M6,15v-4h4v4H6z"/>
</svg>
